svg/chevron_left_round.svg

<svg xmlns="http://www.w3.org/2000/svg" viewBox="0 0 32 32" enable-background="new 0 0 32 32"><path d="M 16 3 C 8.8321429 3 3 8.8321429 3 16 C 3 23.167857 8.8321429 29 16 29 C 23.167857 29 29 23.167857 29 16 C 29 8.8321429 23.167857 3 16 3 z M 16 5 C 22.086977 5 27 9.9130231 27 16 C 27 22.086977 22.086977 27 16 27 C 9.9130231 27 5 22.086977 5 16 C 5 9.9130231 9.9130231 5 16 5 z M 17.78125 9.28125 L 11.78125 15.28125 L 11.09375 16 L 11.78125 16.71875 L 17.78125 22.71875 L 19.21875 21.28125 L 13.9375 16 L 19.21875 10.71875 L 17.78125 9.28125 z" color="#000" overflow="visible" enable-background="accumulate"/></svg>

<svg xmlns="http://www.w3.org/2000/svg" viewBox="0 0 32 32"><path d="M16 3C8.832 3 3 8.832 3 16s5.832 13 13 13 13-5.832 13-13S23.168 3 16 3zm0 2c6.087 0 11 4.913 11 11s-4.913 11-11 11S5 22.087 5 16 9.913 5 16 5zm1.78 4.28l-6 6-.686.72.687.72 6 6 1.44-1.44L13.937 16l5.28-5.28-1.437-1.44z"/></svg>
